chess-client/components/Chess/_/images/whiteBishop.svg

<svg viewBox="0 0 160 160" xmlns="http://www.w3.org/2000/svg"><path fill="#0078d7" d="M77.53 12.27c3.68-1.11 6.43 2.37 8.48 4.87 1.39 1.66.9 3.89.22 5.73 5.77 4.1 10.23 9.72 15.39 14.53 4.45 3.9 6.76 10.26 4.92 16.03-1.61 5.77-7.06 9-10.59 13.48 5.34.18 10.7.05 16.05.09v16c-5.24.01-10.49-.01-15.73.01v10.98c5.24.02 10.49 0 15.73.01v16h-8.2c3.44 7.34 6.87 14.67 10.33 22H128v16H32v-16h13.87c3.46-7.33 6.89-14.66 10.33-22H48V94c5.24-.01 10.49.01 15.73-.01-.01-3.66-.01-7.32 0-10.98-5.24-.02-10.49 0-15.73-.01V67h14.77c-4.23-4.68-10.32-8.58-11.33-15.3-1.07-5.52 1.55-11.04 5.66-14.64 4.93-4.64 9.3-9.93 14.73-14.02-2.54-4.59 1.96-8.84 5.7-10.77M74.71 20c1.34 1.52 2.78 2.95 4.31 4.29A55.75 55.75 0 0 0 83.29 20 54.266 54.266 0 0 0 79 15.71 51.08 51.08 0 0 0 74.71 20m-1.61 7.08c-5.21 4.47-9.83 9.61-14.73 14.42-3.9 3.81-4.23 10.58-.6 14.68 3.36 3.75 7.13 7.12 10.58 10.78 7.2.09 14.39.02 21.58.04 3.32-3.34 6.71-6.61 9.98-10 2.59-2.58 3.82-6.45 3.03-10.04-.91-4.68-5.16-7.45-8.18-10.76-3.74-3.44-6.85-7.69-11.33-10.23-1.6 1.02-3.35 2.46-5.4 1.88-1.62-.44-3.41-2.55-4.93-.77M52 71v8h56v-8H52m15.73 12.01c-.01 3.66-.01 7.32 0 10.98 8.18.01 16.36.01 24.54 0 .01-3.66.01-7.32 0-10.98-8.18-.01-16.36-.01-24.54 0M52 98v8h56v-8H52m8.45 12.13c-3.21 7.37-6.79 14.56-10.14 21.87h59.38c-3.5-7.35-6.8-14.8-10.45-22.07-12.93.25-25.86-.15-38.79.2M36 136v8h88v-8H36z"/><path d="M74.71 20A51.08 51.08 0 0 1 79 15.71c1.51 1.35 2.94 2.78 4.29 4.29a55.75 55.75 0 0 1-4.27 4.29A47.167 47.167 0 0 1 74.71 20zm-1.61 7.08c1.52-1.78 3.31.33 4.93.77 2.05.58 3.8-.86 5.4-1.88 4.48 2.54 7.59 6.79 11.33 10.23 3.02 3.31 7.27 6.08 8.18 10.76.79 3.59-.44 7.46-3.03 10.04-3.27 3.39-6.66 6.66-9.98 10-7.19-.02-14.38.05-21.58-.04-3.45-3.66-7.22-7.03-10.58-10.78-3.63-4.1-3.3-10.87.6-14.68 4.9-4.81 9.52-9.95 14.73-14.42zM52 71h56v8H52v-8zm15.73 12.01c8.18-.01 16.36-.01 24.54 0 .01 3.66.01 7.32 0 10.98-8.18.01-16.36.01-24.54 0-.01-3.66-.01-7.32 0-10.98zM52 98h56v8H52v-8zm8.45 12.13c12.93-.35 25.86.05 38.79-.2 3.65 7.27 6.95 14.72 10.45 22.07H50.31c3.35-7.31 6.93-14.5 10.14-21.87zM36 136h88v8H36v-8z" fill="#fff"/></svg>

<?xml version="1.0" encoding="UTF-8" ?>
<!DOCTYPE svg PUBLIC "-//W3C//DTD SVG 1.1//EN" "http://www.w3.org/Graphics/SVG/1.1/DTD/svg11.dtd">
<svg width="160pt" height="160pt" viewBox="0 0 160 160" version="1.1" xmlns="http://www.w3.org/2000/svg">
<g id="#0078d7ff">
<path fill="#0078d7" opacity="1.00" d=" M 77.53 12.27 C 81.21 11.16 83.96 14.64 86.01 17.14 C 87.40 18.80 86.91 21.03 86.23 22.87 C 92.00 26.97 96.46 32.59 101.62 37.40 C 106.07 41.30 108.38 47.66 106.54 53.43 C 104.93 59.20 99.48 62.43 95.95 66.91 C 101.29 67.09 106.65 66.96 112.00 67.00 C 112.00 72.33 112.00 77.67 112.00 83.00 C 106.76 83.01 101.51 82.99 96.27 83.01 C 96.27 86.67 96.27 90.33 96.27 93.99 C 101.51 94.01 106.76 93.99 112.00 94.00 C 112.00 99.33 112.00 104.67 112.00 110.00 C 109.26 110.00 106.53 110.00 103.80 110.00 C 107.24 117.34 110.67 124.67 114.13 132.00 C 118.75 132.00 123.37 132.00 128.00 132.00 C 128.00 137.33 128.00 142.67 128.00 148.00 C 96.00 148.00 64.00 148.00 32.00 148.00 C 32.00 142.67 32.00 137.33 32.00 132.00 C 36.62 132.00 41.25 132.00 45.87 132.00 C 49.33 124.67 52.76 117.34 56.20 110.00 C 53.47 110.00 50.74 110.00 48.00 110.00 C 48.00 104.67 48.00 99.33 48.00 94.00 C 53.24 93.99 58.49 94.01 63.73 93.99 C 63.72 90.33 63.72 86.67 63.73 83.01 C 58.49 82.99 53.24 83.01 48.00 83.00 C 48.00 77.67 48.00 72.33 48.00 67.00 C 52.93 67.00 57.85 67.00 62.77 67.00 C 58.54 62.32 52.45 58.42 51.44 51.70 C 50.37 46.18 52.99 40.66 57.10 37.06 C 62.03 32.42 66.40 27.13 71.83 23.04 C 69.29 18.45 73.79 14.20 77.53 12.27 M 74.71 20.00 C 76.05 21.52 77.49 22.95 79.02 24.29 C 80.52 22.94 81.95 21.50 83.29 20.00 C 81.94 18.49 80.51 17.06 79.00 15.71 C 77.49 17.05 76.05 18.49 74.71 20.00 M 73.10 27.08 C 67.89 31.55 63.27 36.69 58.37 41.50 C 54.47 45.31 54.14 52.08 57.77 56.18 C 61.13 59.93 64.90 63.30 68.35 66.96 C 75.55 67.05 82.74 66.98 89.93 67.00 C 93.25 63.66 96.64 60.39 99.91 57.00 C 102.50 54.42 103.73 50.55 102.94 46.96 C 102.03 42.28 97.78 39.51 94.76 36.20 C 91.02 32.76 87.91 28.51 83.43 25.97 C 81.83 26.99 80.08 28.43 78.03 27.85 C 76.41 27.41 74.62 25.30 73.10 27.08 M 52.00 71.00 C 52.00 73.67 52.00 76.33 52.00 79.00 C 70.67 79.00 89.33 79.00 108.00 79.00 C 108.00 76.33 108.00 73.67 108.00 71.00 C 89.33 71.00 70.67 71.00 52.00 71.00 M 67.73 83.01 C 67.72 86.67 67.72 90.33 67.73 93.99 C 75.91 94.00 84.09 94.00 92.27 93.99 C 92.28 90.33 92.28 86.67 92.27 83.01 C 84.09 83.00 75.91 83.00 67.73 83.01 M 52.00 98.00 C 52.00 100.67 52.00 103.33 52.00 106.00 C 70.67 106.00 89.33 106.00 108.00 106.00 C 108.00 103.33 108.00 100.67 108.00 98.00 C 89.33 98.00 70.67 98.00 52.00 98.00 M 60.45 110.13 C 57.24 117.50 53.66 124.69 50.31 132.00 C 70.10 132.00 89.90 132.00 109.69 132.00 C 106.19 124.65 102.89 117.20 99.24 109.93 C 86.31 110.18 73.38 109.78 60.45 110.13 M 36.00 136.00 C 36.00 138.67 36.00 141.33 36.00 144.00 C 65.33 144.00 94.67 144.00 124.00 144.00 C 124.00 141.33 124.00 138.67 124.00 136.00 C 94.67 136.00 65.33 136.00 36.00 136.00 Z" />
</g>
<g id="#ffffffff">
<path fill="#ffffff" opacity="1.00" d=" M 74.71 20.00 C 76.05 18.49 77.49 17.05 79.00 15.71 C 80.51 17.06 81.94 18.49 83.29 20.00 C 81.95 21.50 80.52 22.94 79.02 24.29 C 77.49 22.95 76.05 21.52 74.71 20.00 Z" />
<path fill="#ffffff" opacity="1.00" d=" M 73.10 27.08 C 74.62 25.30 76.41 27.41 78.03 27.85 C 80.08 28.43 81.83 26.99 83.43 25.97 C 87.91 28.51 91.02 32.76 94.76 36.20 C 97.78 39.51 102.03 42.28 102.94 46.96 C 103.73 50.55 102.50 54.42 99.91 57.00 C 96.64 60.39 93.25 63.66 89.93 67.00 C 82.74 66.98 75.55 67.05 68.35 66.96 C 64.90 63.30 61.13 59.93 57.77 56.18 C 54.14 52.08 54.47 45.31 58.37 41.50 C 63.27 36.69 67.89 31.55 73.10 27.08 Z" />
<path fill="#ffffff" opacity="1.00" d=" M 52.00 71.00 C 70.67 71.00 89.33 71.00 108.00 71.00 C 108.00 73.67 108.00 76.33 108.00 79.00 C 89.33 79.00 70.67 79.00 52.00 79.00 C 52.00 76.33 52.00 73.67 52.00 71.00 Z" />
<path fill="#ffffff" opacity="1.00" d=" M 67.73 83.01 C 75.91 83.00 84.09 83.00 92.27 83.01 C 92.28 86.67 92.28 90.33 92.27 93.99 C 84.09 94.00 75.91 94.00 67.73 93.99 C 67.72 90.33 67.72 86.67 67.73 83.01 Z" />
<path fill="#ffffff" opacity="1.00" d=" M 52.00 98.00 C 70.67 98.00 89.33 98.00 108.00 98.00 C 108.00 100.67 108.00 103.33 108.00 106.00 C 89.33 106.00 70.67 106.00 52.00 106.00 C 52.00 103.33 52.00 100.67 52.00 98.00 Z" />
<path fill="#ffffff" opacity="1.00" d=" M 60.45 110.13 C 73.38 109.78 86.31 110.18 99.24 109.93 C 102.89 117.20 106.19 124.65 109.69 132.00 C 89.90 132.00 70.10 132.00 50.31 132.00 C 53.66 124.69 57.24 117.50 60.45 110.13 Z" />
<path fill="#ffffff" opacity="1.00" d=" M 36.00 136.00 C 65.33 136.00 94.67 136.00 124.00 136.00 C 124.00 138.67 124.00 141.33 124.00 144.00 C 94.67 144.00 65.33 144.00 36.00 144.00 C 36.00 141.33 36.00 138.67 36.00 136.00 Z" />
</g>
</svg>
